packages/nimble-tokens/assets-icons/Edit_16x16.svg

<svg id="Layer_1" data-name="Layer 1" xmlns="http://www.w3.org/2000/svg" viewBox="0 0 16 16"><path d="M12.55277.89772c.43494-.38374,1.386-.0175,2.40929,1.14212,1.02464,1.15893,1.26977,2.1484.83554,2.53214l-1.83778,1.6232L10.7157,2.51952ZM2.70974,13.557l3.96131-1.862-1.97085.33892.08615-1.94531-.64085.33262.20872-1.3508L2.015,12.76991Zm4.42565-1.3368L0,15.24882,3.88987,8.546,8.09,4.83738l3.24483,3.67425Zm5.72485-5.1553L9.61541,3.39064c-.23672-.2682.29556-.72336.52458-.46427l3.24553,3.675c.23392.2654-.29836.72056-.52528.46357M11.81668,7.999,8.57186,4.32479c-.23673-.2682.29486-.72337.52458-.46287l3.24482,3.67355c.23463.2654-.29836.72057-.52458.46357" opacity="0.7"/></svg>

<?xml version="1.0" encoding="iso-8859-1"?>
<!-- Generator: Adobe Illustrator 22.0.1, SVG Export Plug-In . SVG Version: 6.00 Build 0)  -->
<svg version="1.1" id="Layer_1" xmlns="http://www.w3.org/2000/svg" xmlns:xlink="http://www.w3.org/1999/xlink" x="0px" y="0px"
	 viewBox="0 0 16 16" style="enable-background:new 0 0 16 16;" xml:space="preserve">
<path style="opacity:0.7;" d="M12.553,0.898c0.435-0.384,1.386-0.018,2.409,1.142c1.025,1.159,1.27,2.148,0.836,2.532L13.96,6.195
	L10.716,2.52L12.553,0.898z M2.71,13.557l3.961-1.862L4.7,12.034l0.086-1.945l-0.641,0.333L4.354,9.07L2.015,12.77L2.71,13.557z
	 M7.135,12.22L0,15.249l3.89-6.703l4.2-3.709l3.245,3.674L7.135,12.22z M12.86,7.065L9.615,3.391
	C9.379,3.122,9.911,2.667,10.14,2.926l3.246,3.675C13.619,6.867,13.087,7.322,12.86,7.065 M11.817,7.999L8.572,4.325
	C8.335,4.057,8.867,3.601,9.096,3.862l3.245,3.674C12.576,7.801,12.043,8.256,11.817,7.999"/>
</svg>
